X:1
T:Make A Noise
T:By Joseph Knapicius b. 1957 gamba1957@aol.com
T:(after psalm 100)
T:Make A Noise (Copyright © 2011)
T:(Copyright © 2011)
T:(Copyright © 2011)
T:(Copyright © 2011)
T:(Copyright © 2011)
T:(Copyright © 2011)
T:(Copyright © 2011)
T:(Copyright © 2011)
C:Joseph Knapicius
Z:(Copyright © 2011)
%%score [ 1 2 3 4 ]
L:1/8
Q:1/2=64
M:2/2
K:D
V:1 treble nm="Soprano" snm="S"
V:2 treble nm="Alto" snm="A"
V:3 treble-8 nm="Tenor" snm="T"
V:4 bass nm="Bass" snm="B"
V:1
"^c. 32" z6 B2- | B4 z2 A2- | A4 z2 G2- | G4 z2 B2- | B4 z2 A2- | A4 z2 G2- | G4 z2 B2- | %7
w: joy|_ a|_ noise|_ joy|_ a|_ noise|_ joy|
 B4 z2 A2- | A4 z2 G2- | G4 z2 B2- | B4 z2 A2- | A4 z2 G2- | G4 z2 B2- | B4 z2 A2- | A4 z2 G2- | %15
w: _ a|_ noise|_ joy|_ a|_ noise|_ joy|_ a|_ noise|
 G4 z4 | (Bc f4) z (e/d/ | e>d c)B c2 z (d | d4 c2 B2) | z (g f2 (ec d2) | c4 B2) z2 | %21
w: _|glo- ri- ous glo- *|* * * ri- ous sing|glo- ri- ous|glo- ry glo- * *|ri- ous|
 ((G2 A2) Bc f2) |[M:6/8]"^(=)" (f>gf e2) z | (e3 d3 | c3) z ((Bc |[M:1/2] B2 c2) | %26
w: sing _ glo- ri- ous-|glo- * * ry|glo- ri-|ous glo- *||
[M:2/2] c4 B2) z2 | (Bc f4) z (e/d/ | e>d c)B c2 z (d | d4 c2 B2) | z (g f2 (ec d2) | c4 B2) z2 | %32
w: ri ous|glo- ri- ous glo- *|* * * ri- ous sing|glo- ri- ous|glo- ry glo- * *|ri- ous|
 z6 A2- | A4 z2 G2- | G4 z2 B2- | B4 z2 A2- | A4 z2 G2- | G4 z2 B2- | B4 z2 A2- | A4 z2 G2- | %40
w: a|_ noise|_ joy|_ a|_ noise|_ joy|_ a|_ noise|
 G4 z2 B2- | B4 z2 A2- | A4 z2 G2- | G4 z2 B2- | B4 z2 A2- | A2 z2 (Bc f2) |[M:6/8] (f>gf e2) z | %47
w: _ joy|_ a|_ noise|_ joy|_ a|_ glo- ri- ous-|glo- * * ry|
 (e3 d3 | c3) z (Bc | (Bcd- !fermata!d3)) |] %50
w: glo- ri-|ous make- a|noise- * * *|
V:2
 B,6 z2 | A6 z2 | F6 z2 | B,6 z2 | A6 z2 | F6 z2 | (B2 A2 F4- | F2 A2 G2) z2 | (FG A4) z2 | %9
w: make|ful|noise|make|ful|noise|make a noise|_ ful noise|make a noise|
 (B2 A2 F4- | F2 A2 G2) z2 | (FG A4) z2 | (B2 A2 F4- | F2 A2 G2) z2 | (FG A4) z2 | (B2 A2 F2 B2- | %16
w: make a noise|_ ful noise|make a noise|make a noise|_ ful noise|make a noise|make a noise joy-|
 B2 A2 G2) z2 | (FG A3) z (G2 | F2 F3 E F2 | G3) z A3 z | (B2 A2 F2 B2- | B2 A2 G2) z (A | %22
w: * ful noise|make a noise a|joy- ful noise to|God all|make a noise joy-|* ful noise to|
[M:6/8] d2 c B2) z | (d>c(B A)GF | E2 F GGG |[M:1/2] F2) z2 |[M:2/2] (B2 A2 F2 B2- | B2 A2 G2) z2 | %28
w: God all lands|all ye lands _ make a|joy- ful noise make a|noise|make a noise joy-|* ful noise|
 (FG A3) z (G2 | F2 F3 E F2 | G3) z A3 z | (B2 A2 F2 B2- | B2 A2 G2) z2 | (FG A4) z2 | (B2 A2 F4- | %35
w: make a noise a|joy- ful noise to|God all|make a noise joy-|* ful noise|make a noise|make a noise|
 F2 A2 G2) z2 | (FG) A4 z2 | (B2 A2 F4- | F2 A2 G2) z2 | (FG) A4 z2 | (B2 A2 F4- | F2 A2 G2) z2 | %42
w: _ ful noise|make a noise|make a noise|_ ful noise|make a noise|make a noise|_ ful noise|
 (FG) A4 z2 | B,6 z2 | A6 z2 | F6 z (A |[M:6/8] d2 c B2) z | (d>c(B A)GF | E2 F GGG | %49
w: make a noise|make|ful|noise to|God all lands|all ye lands _ make a|joy- ful noise make a|
 !fermata!F6) |] %50
w: noise|
V:3
 z2 A6 | z2 G6 | z2 B6 | z2 A6 | z2 G6 | z2 B6 | z2 A6 | z2 G6 | z2 B6 | z2 (A4 d2 | c4) z ((dcB) | %11
w: a|noise|joy|a|noise|joy|a|noise|joy|glo- ri-|ous glo- * *|
 c2 B6) | z2 (A4 d2 | c4) z ((dcB) | c2 B6) | z2 (A4 d2 | c4) z ((dcB) | c2 B6) | (c2 B3) z d2 | %19
w: ri- ous|glo- ri-|ous glo- * *|ri- ous|glo- ri-|ous glo- * *|ri- ous|glo- ry sing|
 B2 d2 e4 | z2 (A4 d2 | c4) z2 (B2 |[M:6/8] A>BA d2 c | B3) z (G2 | F E2) z (EE |[M:1/2] A4) | %26
w: glo- ri- ous|glo- ri-|ous sing|glo- ri- ous glo- ri-|ous glo-|ri- ous make a|noise|
[M:2/2] z2 (A4 d2 | c4) z ((dcB) | c2 B6) | (c2 B3) z d2 | B2 d2 e4 | z2 (A4 d2 | c4) z ((dcB) | %33
w: glo- ri-|ous glo- * *|ri- ous|glo- ry sing|glo- ri- ous|glo- ri-|ous glo- * *|
 c2 B6) | z2 (A4 d2 | c4) z ((dcB) | c2 B6) | z2 (A4 d2 | c4) z ((dcB) | c2 B6) | z2 A6 | z2 G6 | %42
w: ri- ous|glo- ri-|ous glo- * *|ri- ous|glo- ri-|ous glo- * *|ri- ous|a|noise|
 z2 B6 | z2 A6 | z2 G6 | z2 B4 (B2 |[M:6/8] A>BA d2 c | B3) z (G2 | F E2) z (EE | !fermata!A6) |] %50
w: joy|a|noise|joy sing|glo- ri- ous glo- ri-|ous glo-|ri- ous make a|noise|
V:4
 z4 F,4- | F,2 z2 B,,4- | B,,2 z2 A,4- | A,2 z2 F,4- | F,2 z2 B,,4- | B,,2 z2 A,4- | A,2 z2 F,4- | %7
w: noise|_ make|_ ful|_ noise|_ make|_ ful|_ noise|
 F,2 z2 B,,4- | B,,2 z2 A,4- | A,2 z2 F,4- | F,2 z2 B,,4- | B,,2 z2 A,4- | A,2 (E,2 D,3 D, | %13
w: _ make|_ ful|_ noise|_ make|_ ful|_ sing forth sing|
 E,2) z2 (B,,2 F,G, | A,2 (B,A,) F,4) | z2 (E,2 D,3 D, | E,2) z2 (B,,2 F,G, | A,2 (B,A,) F,4) | %18
w: forth the ho- nour|of his _ name|sing forth sing|forth the ho- nour|of his _ name|
 z2 z (F, A,4 | G,E, G,4 F,2) | z2 (E,2 D,3 D, | E,4) z2 (E,2 |[M:6/8] F,3 G,3 | F,3 B,2) z | %24
w: sing forth|sing forth ho- nour|sing forth sing|forth his|prais- es|prais- es|
 (A,2 G, F, (E,2 |[M:1/2] D,4)) |[M:2/2] z2 (E,2 D,3 D, | E,2) z2 (B,,2 F,G, | A,2 (B,A,) F,4) | %29
w: sing of his name,|_|sing forth sing|forth the ho- nour|of his _ name|
 z2 z (F, A,4 | G,E, G,4 F,2) | z2 (E,2 D,3 D, | E,2) z2 (B,,2 F,G, | A,2 (B,A,) F,4) | %34
w: sing forth|sing forth ho- nour|sing forth sing|forth the ho- nour|of his _ name|
 z2 (E,2 D,3 D, | E,2) z2 (B,,2 F,G, | A,2 (B,A,) F,4) | z4 F,4- | F,2 z2 B,,4- | B,,2 z2 A,4- | %40
w: sing forth sing|forth the ho- nour|of his _ name|noise|_ make|_ ful|
 A,2 z2 F,4- | F,2 z2 B,,4- | B,,2 z2 A,4- | A,2 z2 F,4- | F,2 z2 B,,4- | B,,2 z2 A,2 (E,2 | %46
w: _ noise|_ make|_ ful|_ noise|_ make|_ ful his|
[M:6/8] F,3 G,3 | F,3 B,2) z | ((A,2 G,) (F, E,2) | !fermata!D,6) |] %50
w: prais- es|prais- es|make _ a _|noise|

